static/assets/images/filter.svg

﻿<?xml version="1.0" encoding="utf-8"?>
<svg version="1.1" xmlns:xlink="http://www.w3.org/1999/xlink" width="16px" height="17px" xmlns="http://www.w3.org/2000/svg">
  <g transform="matrix(1 0 0 1 -16 -939 )">
    <path d="M 15.2521246458924 0  C 15.5694050991501 0  15.7922568460812 0.156960227272728  15.9206798866856 0.470880681818182  C 16.0491029272899 0.800899621212119  15.9962228517469 1.0826231060606  15.7620396600567 1.31605113636364  L 10.1756373937677 7.26846590909091  L 10.1756373937677 16.2272727272727  C 10.1756373937677 16.5653409090909  10.028328611898 16.8027935606061  9.73371104815864 16.9396306818182  C 9.63550519357885 16.9798768939394  9.54107648725213 17  9.45042492917847 17  C 9.24645892351275 17  9.07648725212465 16.9235321969697  8.94050991501416 16.7705965909091  L 6.03966005665722 13.6796875  C 5.8961284230406 13.5267518939394  5.82436260623229 13.3456439393939  5.82436260623229 13.1363636363636  L 5.82436260623229 7.26846590909091  L 0.237960339943343 1.31605113636364  C 0.00377714825306893 1.0826231060606  -0.0491029272898961 0.800899621212119  0.0793201133144476 0.470880681818182  C 0.207743153918791 0.156960227272728  0.430594900849858 0  0.747875354107649 0  L 15.2521246458924 0  Z " fill-rule="nonzero" fill="#620ed9" stroke="none" transform="matrix(1 0 0 1 16 939 )" />
  </g>
</svg>

<svg width="16" height="17" xmlns="http://www.w3.org/2000/svg"><path d="M15.252 0c.317 0 .54.157.669.47.128.33.075.613-.159.846l-5.586 5.952v8.96c0 .337-.148.575-.442.712a.746.746 0 0 1-.284.06.654.654 0 0 1-.51-.23l-2.9-3.09a.767.767 0 0 1-.216-.544V7.268L.238 1.316C.004 1.083-.049.801.079.471.208.157.431 0 .748 0h14.504z" fill="#620ed9"/></svg>
